src/assets/svg/bigA.svg

<svg width='846' height='998' fill='none' xmlns='http://www.w3.org/2000/svg'>
	<path opacity='.1'
		  d='m733.743 199.765.001-.003c10.367-72.042-1.513-121.855-23.691-153.674C687.87 14.263 655.425.5 624.813.5c-32.695 0-64.677 10.061-96.921 25.122-27.799 12.984-55.824 29.7-84.684 46.914-4.61 2.75-9.241 5.512-13.897 8.274-67.625 40.124-140.316 80.171-226.059 80.171-28.534 0-58.218-10.157-75.761-31.815-17.515-21.626-23.029-54.847-2.975-101.22l.105-.244-.143-.224-2.436-3.821-.442-.692-.412.71C100.415 59.44 79.695 141.052 79.695 230.258c0 28.729 7.326 62.568 22.299 89.242 14.975 26.675 37.653 46.266 68.361 46.266 15.496 0 32.446-5.491 50.408-15.051 17.965-9.563 36.975-23.213 56.597-39.574 39.244-32.719 80.994-76.324 121.807-119.865 5.273-5.625 10.531-11.25 15.765-16.849 35.29-37.753 69.535-74.388 100.487-102.708 17.771-16.26 34.441-29.765 49.585-39.162 15.155-9.403 28.724-14.657 40.308-14.5h.006c7.248 0 12.862 1.58 16.684 5.883 3.837 4.319 5.965 11.488 5.966 22.906-.608 23.266-10.812 47.647-28.273 73.107s-42.151 51.959-71.666 79.451c-44.645 41.585-100.28 85.398-158.548 131.284-18.782 14.791-37.838 29.797-56.887 45.013-78.13 62.411-156.14 128.348-214.62 197.405C39.502 642.158.5 714.392.5 789.394c0 48.498 15.565 100.518 49.004 140.423C82.955 969.736 134.27 997.5 205.688 997.5c23.98 0 50.454-16.458 78.612-47.228 28.177-30.791 58.127-76.006 89.052-133.736C435.17 701.139 500.933 535.657 564.26 335.198h12.339L398.938 860.559l-.067.198.095.188c16.494 32.57 45.497 62.88 78.907 85.048 33.408 22.166 71.273 36.223 105.515 36.223 42.492 0 84.939-19.731 122.895-50.381 37.959-30.653 71.466-72.257 96.088-116.086 24.62-43.825 40.378-89.91 42.802-129.531 2.423-39.617-8.487-72.877-37.338-90.844l-.002-.002c-12.052-7.429-27.829-7.555-45.484-2.382-17.662 5.175-37.283 15.675-57.106 29.623-39.649 27.898-80.203 69.655-107.65 110.461l-.224.334.278.291 4.873 5.094.398.415.356-.45c11.566-14.636 20.037-22.521 28.004-26.45 7.939-3.914 15.434-3.928 25.148-2.659l.007.001.008.001c7.715.776 13.934 5.58 18.746 13.474 4.816 7.902 8.19 18.855 10.203 31.798 4.025 25.88 2.584 59.572-3.5 92.331-6.086 32.762-16.806 64.531-31.3 86.585-14.503 22.067-32.663 34.25-53.664 28.291h-.002c-17.94-5.001-28.879-24.421-31.161-59.89-2.28-35.428 4.103-86.633 20.547-154.756 11.163-44.811 31.82-116.145 54.294-193.754 8.181-28.252 16.603-57.336 24.896-86.274 31.065-108.407 60.318-214.795 68.243-267.691ZM185.476 697.712l-.5-.021.5.021c4.866-115.736 56.257-196.822 131.753-276.539 32.949-34.791 70.479-69.31 110.733-106.335 5.871-5.4 11.801-10.854 17.783-16.37 46.873-43.223 96.941-90.239 147.397-145.172l5.525 5.776c-2.26 7.939-4.537 15.95-6.832 24.023-37.261 131.107-79.138 278.453-130.591 395.467-27.329 62.151-57.346 115.71-90.783 153.724-33.437 38.014-70.244 60.429-111.164 60.429-26.06 0-45.09-9.496-57.318-26.066-12.244-16.592-17.719-40.345-16.503-68.937Z'
		  stroke='#002DFF' />
</svg>

<svg width="846" height="998" viewBox="0 0 846 998" fill="none" xmlns="http://www.w3.org/2000/svg">
<path opacity="0.1" d="M733.743 199.765L733.744 199.762C744.111 127.72 732.231 77.9069 710.053 46.0881C687.87 14.2633 655.425 0.5 624.813 0.5C592.118 0.5 560.136 10.5614 527.892 25.6221C500.093 38.6064 472.068 55.3223 443.208 72.5362C438.598 75.286 433.967 78.0484 429.311 80.8104C361.686 120.934 288.995 160.981 203.252 160.981C174.718 160.981 145.034 150.824 127.491 129.166C109.976 107.54 104.462 74.3185 124.516 27.9453L124.621 27.7017L124.478 27.478L122.042 23.657L121.6 22.9646L121.188 23.6747C100.415 59.4407 79.695 141.052 79.695 230.258C79.695 258.987 87.021 292.826 101.994 319.5C116.969 346.175 139.647 365.766 170.355 365.766C185.851 365.766 202.801 360.275 220.763 350.715C238.728 341.152 257.738 327.502 277.36 311.141C316.604 278.422 358.354 234.817 399.167 191.276C404.44 185.651 409.698 180.026 414.932 174.427C450.222 136.674 484.467 100.039 515.419 71.7186C533.19 55.4586 549.86 41.9544 565.004 32.5573C580.159 23.1536 593.728 17.9003 605.312 18.0576H605.318C612.566 18.0576 618.18 19.6367 622.002 23.9395C625.839 28.2587 627.967 35.4278 627.968 46.8457C627.36 70.1118 617.156 94.4932 599.695 119.953C582.234 145.413 557.544 171.912 528.029 199.404C483.384 240.989 427.749 284.802 369.481 330.688C350.699 345.479 331.643 360.485 312.594 375.701C234.464 438.112 156.454 504.049 97.9749 573.106C39.5007 642.158 0.5 714.392 0.5 789.394C0.5 837.892 16.0647 889.912 49.5044 929.817C82.9553 969.736 134.269 997.5 205.688 997.5C229.668 997.5 256.142 981.042 284.3 950.272C312.477 919.481 342.427 874.266 373.352 816.536C435.17 701.139 500.933 535.657 564.26 335.198H576.599L398.938 860.559L398.871 860.757L398.966 860.945C415.46 893.515 444.463 923.825 477.873 945.993C511.281 968.159 549.146 982.216 583.388 982.216C625.88 982.216 668.327 962.485 706.283 931.835C744.242 901.182 777.749 859.578 802.371 815.749C826.991 771.924 842.749 725.839 845.173 686.218C847.596 646.601 836.686 613.341 807.835 595.374L807.833 595.372C795.781 587.943 780.004 587.817 762.349 592.99C744.687 598.165 725.066 608.665 705.243 622.613C665.594 650.511 625.04 692.268 597.593 733.074L597.369 733.408L597.647 733.699L602.52 738.793L602.918 739.208L603.274 738.758C614.84 724.122 623.311 716.237 631.278 712.308C639.217 708.394 646.712 708.38 656.426 709.649L656.433 709.65L656.441 709.651C664.156 710.427 670.375 715.231 675.187 723.125C680.003 731.027 683.377 741.98 685.39 754.923C689.415 780.803 687.974 814.495 681.89 847.254C675.804 880.016 665.084 911.785 650.59 933.839C636.087 955.906 617.927 968.089 596.926 962.13L596.924 962.13C578.984 957.129 568.045 937.709 565.763 902.24C563.483 866.812 569.866 815.607 586.31 747.484C597.473 702.673 618.13 631.339 640.604 553.73C648.785 525.478 657.207 496.394 665.5 467.456C696.565 359.049 725.818 252.661 733.743 199.765ZM185.476 697.712L184.976 697.691L185.476 697.712C190.342 581.976 241.733 500.89 317.229 421.173C350.178 386.382 387.708 351.863 427.962 314.838C433.833 309.438 439.763 303.984 445.745 298.468C492.618 255.245 542.686 208.229 593.142 153.296L598.667 159.072C596.407 167.011 594.13 175.022 591.835 183.095C554.574 314.202 512.697 461.548 461.244 578.562C433.915 640.713 403.898 694.272 370.461 732.286C337.024 770.3 300.217 792.715 259.297 792.715C233.237 792.715 214.207 783.219 201.979 766.649C189.735 750.057 184.26 726.304 185.476 697.712Z" stroke="#002DFF"/>
</svg>
